X: 6503
T: Cat That Ate The Candle, The
R: reel
M: 4/4
K: Eminor
EB~B2 BAB^c|d2AF DEFD|EA~A2 BAGF|1 GBAF GEEB:|2 GBAF GEE2||
Be~e2 Begb|afge fdd2|ecdB cBAF|GBAF GEE2|
Be~e2 Begb|a2ge eddf|e2dB cBAF|GBAF GEEB||

